images/enj.svg

<svg height="250" viewBox="0 0 250 250" width="250" xmlns="http://www.w3.org/2000/svg" xmlns:xlink="http://www.w3.org/1999/xlink"><radialGradient id="a" cx="54.277847857" cy="45.61374996" gradientUnits="userSpaceOnUse" r="129.551308455"><stop offset="0" stop-color="#7ff"/><stop offset=".394" stop-color="#87e4ff"/><stop offset=".861" stop-color="#6273ff"/><stop offset="1" stop-color="#9468ff"/></radialGradient><clipPath id="b"><path d="m33 86h200v156h-200zm0 0"/></clipPath><clipPath id="c"><path d="m241.390625 116.398438c4.75 64.28125-43.511719 120.246093-107.792969 124.996093-64.285156 4.75-120.246094-43.511719-124.996094-107.796875-4.75-64.28125 43.511719-120.246094 107.792969-124.996094 64.285157-4.75 120.246094 43.511719 124.996094 107.796876zm0 0"/></clipPath><radialGradient id="d" cx=".502" cy=".478" gradientTransform="matrix(163.3969 -17.428304 20.15029 189.08066 39.563648 81.218738)" gradientUnits="userSpaceOnUse" r=".554"><stop offset=".497" stop-color="#0ff"/><stop offset="1" stop-color="#00f4ff" stop-opacity="0"/></radialGradient><linearGradient id="e" gradientTransform="matrix(175.605469 0 0 160.648437 32.164063 47.050781)" gradientUnits="userSpaceOnUse" x1=".636" x2=".997" y1=".506" y2=".764"><stop offset="0" stop-color="#5a27ed"/><stop offset="1" stop-color="#ab37f4"/></linearGradient><linearGradient id="f" gradientTransform="matrix(147.535156 0 0 43.855469 48.050781 159.253906)" gradientUnits="userSpaceOnUse" x1=".039" x2=".877" y1=".245" y2=".957"><stop offset="0" stop-color="#7618f4"/><stop offset=".504" stop-color="#575ff8"/><stop offset="1" stop-color="#09ffff"/></linearGradient><linearGradient id="g" gradientTransform="matrix(138.070312 0 0 42.445312 64.054687 60.882813)" gradientUnits="userSpaceOnUse" x1=".17" x2=".918" y1=".498" y2=".744"><stop offset="0" stop-color="#7f4cff"/><stop offset="1" stop-color="#3095ff"/></linearGradient><linearGradient id="h" gradientTransform="matrix(138.183594 0 0 42.449219 64.78125 113.621094)" gradientUnits="userSpaceOnUse" x1=".14" x2=".791" y1=".056" y2="1.241"><stop offset="0" stop-color="#7f52ff"/><stop offset="1" stop-color="#3096ff"/></linearGradient><linearGradient id="i" gradientTransform="matrix(170.503906 0 0 134.136719 34.238281 48.707031)" gradientUnits="userSpaceOnUse" x1=".81" x2=".575" y1=".81" y2=".511"><stop offset="0" stop-color="#fff"/><stop offset=".157" stop-color="#fbffff"/><stop offset=".319" stop-color="#efffff"/><stop offset=".483" stop-color="#daffff"/><stop offset=".648" stop-color="#bdfffe"/><stop offset=".814" stop-color="#98fffe"/><stop offset=".979" stop-color="#6bfffd"/><stop offset="1" stop-color="#65fffd"/></linearGradient><linearGradient id="j" gradientTransform="matrix(155.511719 0 0 144.878906 28.273438 21.808594)" gradientUnits="userSpaceOnUse" x1=".126" x2=".692" y1=".992" y2="-.06"><stop offset="0" stop-color="#fff" stop-opacity="0"/><stop offset=".515" stop-color="#e6ffff"/><stop offset="1" stop-color="#ceffff" stop-opacity=".502"/></linearGradient><filter id="k" height="100%" width="100%" x="0%" y="0%"><feColorMatrix in="SourceGraphic" type="matrix" values="0 0 0 0 1 0 0 0 0 1 0 0 0 0 1 0 0 0 1 0"/></filter><mask id="l"><g filter="url(#k)"><path d="m0 0h250v250h-250z" fill-opacity=".4"/></g></mask><linearGradient id="m" gradientTransform="matrix(181.859375 0 0 149.230469 8.289063 8.226563)" gradientUnits="userSpaceOnUse" x1="0" x2="1" y1=".5" y2=".5"><stop offset="0" stop-color="#fff"/><stop offset=".867" stop-color="#fff" stop-opacity=".306"/><stop offset="1" stop-color="#fff" stop-opacity=".2"/></linearGradient><clipPath id="n"><path d="m0 0h250v250h-250z"/></clipPath><path d="m241.71875 124.980469c0 64.457031-52.253906 116.710937-116.710938 116.710937-64.457031 0-116.714843-52.253906-116.714843-116.710937 0-64.460938 52.253906-116.714844 116.710937-116.714844 64.460938 0 116.714844 52.253906 116.714844 116.714844zm0 0" fill="url(#a)"/><g clip-path="url(#b)"><g clip-path="url(#c)"><path d="m201.585938 88.382812c16.078124 15.601563 28.320312 35.117188 30.800781 58.460938 5.460937 51.410156-34.523438 97.792969-89.308594 103.613281-54.785156 5.824219-103.621094-31.136719-109.078125-82.542969-5.460938-51.40625 25.519531-47.921874 80.296875-53.742187 29.894531-3.167969 77.550781-35.242187 87.289063-25.789063zm0 0" fill="url(#d)"/></g></g><path d="m207.167969 98.421875-.117188-1.503906h-19.113281l19.238281-16.445313-.03125-.792968c-.398437-11.265626-3.78125-22.222657-9.808593-31.75l-.460938-.878907h-103.222656c-9.75 0-28.691406 3.015625-42.597656 18.566407-6.0625 6.78125-19.054688 27.136718-18.890626 49.96875.097657 12.847656 1.34375 22.835937 6.195313 34.015624 2.296875 5.367188 5.046875 10.527344 8.210937 15.429688 9.796876 17.570312 20.472657 29.804688 31.734376 36.363281 9.539062 5.550781 17.984374 6.304688 24.992187 6.304688h58.507813l.347656-.195313c.195312-.097656 19.335937-10.105468 36.621094-20.605468l.503906-.304688.195312-.539062c.058594-.167969.121094-.328126.179688-.484376.144531-.332031.273437-.671874.378906-1.019531 2.128906-6.097656 3.90625-19.207031 4.765625-26.453125.347656-2.644531.546875-4.382812.546875-4.394531l.21875-1.816406h-.070312l.148437-1.464844h-20.421875l21.894531-16.578125.0625-.726562c1.335938-16.128907 0-34.507813-.007812-34.695313zm0 0" fill="url(#e)"/><path d="m121.21875 170.15625s-19.175781 1.84375-75.699219-12.910156c23.0625 44.984375 44.660157 47.433594 60.730469 47.433594h54.855469s18.222656-9.878907 35.507812-20.375zm0 0" fill="#fff"/><path d="m106.257812 203.105469c-6.925781 0-16.652343.054687-26.300781-6.234375-16.777343-10.9375-22.316406-19.558594-31.90625-37.617188 43.09375 11.0625 63.761719 12.289063 70.726563 12.289063 1.269531 0 2.039062-.042969 2.382812-.070313l74.425782 12.066406c-15.25 9.113282-33.246094 18.484376-35.316407 19.570313h-54.011719zm0 0" fill="url(#f)"/><path d="m84.949219 152.582031s-9.269531-10.742187-12.5-18.902343l104.839843 18.902343 26.871094-20.347656c-.03125-16.691406-.101562-32.660156-.101562-32.660156h-131.605469s4.648437-13.332031 13.03125-18.632813l95.996094 17.933594 22.65625-19.378906c-.914063-18.226563-9.640625-29.332032-9.640625-29.332032h-101.316406c-8.84375 0-26.914063 1.953126-40.527344 17.171876-13.609375 15.21875-25.738282 49.140624-12.6875 80.746093 13.253906 32.101563 30.460937 36.222657 40.183594 36.222657h116.472656c.160156-.46875.390625-.90625.546875-1.453126 2.800781-9.480468 5.203125-30.261718 5.203125-30.261718h-117.421875zm0 0" fill="#fff"/><path d="m112.964844 60.882812s-37.835938 7.375-39.683594 8.300782c-1.84375.921875-9.226562 34.144531-9.226562 34.144531h109.890624l28.179688-23.832031zm0 0" fill="url(#g)"/><path d="m113.683594 113.621094s-37.835938 7.382812-39.675782 8.308594c-1.835937.925781-9.226562 34.140624-9.226562 34.140624h105.835938l32.347656-24.425781zm0 0" fill="url(#h)"/><path d="m204.164062 132.234375h-131.609374c3.230468 8.167969 12.5 18.902344 12.5 18.902344h117.425781s-2.308594 23.171875-5.308594 31.707031h-113.476563c-14.464843 0-30.015624-4.84375-43.625-36.214844-13.609374-31.375-.917968-65.527344 12.691407-80.75 13.609375-15.21875 31.679687-17.171875 40.519531-17.171875h101.320312s8.769532 12.105469 9.535157 30.789063h-118.546875c-8.378906 5.304687-13.035156 18.632812-13.035156 18.632812h131.601562c.777344 11.355469.777344 22.75.007812 34.105469zm0 0" fill="url(#i)"/><path d="m183.785156 41.066406s-45.78125-18.164062-87.097656 5.203125c-36.210938 20.484375-77.28125 53.222657-46.777344 120.417969-27.558594-39.320312-27.855468-71.273438-6.210937-104.75 20.457031-31.644531 80.675781-60.496094 140.085937-20.871094zm0 0" fill="url(#j)"/><g clip-path="url(#n)" mask="url(#l)"><path d="m124.902344 8.226562c-36.636719.207032-71.070313 17.523438-93.082032 46.808594-22.011718 29.285156-29.074218 67.171875-19.089843 102.421875 0 0-.050781-1.125-.117188-3.175781-.371093-12.199219 1.203125-57.085938 24.113281-53.175781 22.910157 3.910156 56.445313 10.695312 96.125-.242188 39.679688-10.941406 71.308594-48.046875 50.925782-76.699219.003906 0-23.863282-15.9375-58.875-15.9375zm0 0" fill="url(#m)"/></g><path d="m105.851562 49.335938c2.84375 7.238281-6.863281 15.898437-19.019531 18.550781-12.15625 2.648437-24.40625-1.324219-26.554687-8.789063-3.410156-11.855468 8.414062-16.074218 20.570312-18.714844 12.15625-2.644531 19.289063-5.601562 25.003906 8.953126zm0 0" fill="#fff"/></svg>

<svg xmlns="http://www.w3.org/2000/svg" xmlns:xlink="http://www.w3.org/1999/xlink" width="250px" height="250px" viewBox="0 0 250 250" version="1.1">
<defs>
<radialGradient id="radial0" gradientUnits="userSpaceOnUse" cx="0.197" cy="0.16" fx="0.197" fy="0.16" r="0.555" gradientTransform="matrix(233.425781,0,0,233.425781,8.292969,8.265625)">
<stop offset="0" style="stop-color:rgb(46.666667%,100%,100%);stop-opacity:1;"/>
<stop offset="0.394" style="stop-color:rgb(52.941179%,89.411765%,100%);stop-opacity:1;"/>
<stop offset="0.861" style="stop-color:rgb(38.431373%,45.09804%,100%);stop-opacity:1;"/>
<stop offset="1" style="stop-color:rgb(58.039218%,40.784314%,100%);stop-opacity:1;"/>
</radialGradient>
<clipPath id="clip1">
  <path d="M 33 86 L 233 86 L 233 242 L 33 242 Z M 33 86 "/>
</clipPath>
<clipPath id="clip2">
  <path d="M 241.390625 116.398438 C 246.140625 180.679688 197.878906 236.644531 133.597656 241.394531 C 69.3125 246.144531 13.351562 197.882812 8.601562 133.597656 C 3.851562 69.316406 52.113281 13.351562 116.394531 8.601562 C 180.679688 3.851562 236.640625 52.113281 241.390625 116.398438 Z M 241.390625 116.398438 "/>
</clipPath>
<radialGradient id="radial1" gradientUnits="userSpaceOnUse" cx="0.502" cy="0.478" fx="0.502" fy="0.478" r="0.554" gradientTransform="matrix(163.3969,-17.428304,20.15029,189.08066,39.563648,81.218738)">
<stop offset="0.497" style="stop-color:rgb(0%,100%,100%);stop-opacity:1;"/>
<stop offset="1" style="stop-color:rgb(0%,95.686275%,100%);stop-opacity:0;"/>
</radialGradient>
<linearGradient id="linear0" gradientUnits="userSpaceOnUse" x1="0.636" y1="0.506" x2="0.997" y2="0.764" gradientTransform="matrix(175.605469,0,0,160.648437,32.164063,47.050781)">
<stop offset="0" style="stop-color:rgb(35.294119%,15.294118%,92.941177%);stop-opacity:1;"/>
<stop offset="1" style="stop-color:rgb(67.058825%,21.568628%,95.686275%);stop-opacity:1;"/>
</linearGradient>
<linearGradient id="linear1" gradientUnits="userSpaceOnUse" x1="0.039" y1="0.245" x2="0.877" y2="0.957" gradientTransform="matrix(147.535156,0,0,43.855469,48.050781,159.253906)">
<stop offset="0" style="stop-color:rgb(46.27451%,9.411765%,95.686275%);stop-opacity:1;"/>
<stop offset="0.504" style="stop-color:rgb(34.117648%,37.254903%,97.254902%);stop-opacity:1;"/>
<stop offset="1" style="stop-color:rgb(3.529412%,100%,100%);stop-opacity:1;"/>
</linearGradient>
<linearGradient id="linear2" gradientUnits="userSpaceOnUse" x1="0.17" y1="0.498" x2="0.918" y2="0.744" gradientTransform="matrix(138.070312,0,0,42.445312,64.054687,60.882813)">
<stop offset="0" style="stop-color:rgb(49.803922%,29.803923%,100%);stop-opacity:1;"/>
<stop offset="1" style="stop-color:rgb(18.82353%,58.431375%,100%);stop-opacity:1;"/>
</linearGradient>
<linearGradient id="linear3" gradientUnits="userSpaceOnUse" x1="0.14" y1="0.056" x2="0.791" y2="1.241" gradientTransform="matrix(138.183594,0,0,42.449219,64.78125,113.621094)">
<stop offset="0" style="stop-color:rgb(49.803922%,32.156864%,100%);stop-opacity:1;"/>
<stop offset="1" style="stop-color:rgb(18.82353%,58.823532%,100%);stop-opacity:1;"/>
</linearGradient>
<linearGradient id="linear4" gradientUnits="userSpaceOnUse" x1="0.81" y1="0.81" x2="0.575" y2="0.511" gradientTransform="matrix(170.503906,0,0,134.136719,34.238281,48.707031)">
<stop offset="0" style="stop-color:rgb(100%,100%,100%);stop-opacity:1;"/>
<stop offset="0.157" style="stop-color:rgb(98.431373%,100%,100%);stop-opacity:1;"/>
<stop offset="0.319" style="stop-color:rgb(93.725491%,100%,100%);stop-opacity:1;"/>
<stop offset="0.483" style="stop-color:rgb(85.490197%,100%,100%);stop-opacity:1;"/>
<stop offset="0.648" style="stop-color:rgb(74.117649%,100%,99.607843%);stop-opacity:1;"/>
<stop offset="0.814" style="stop-color:rgb(59.607846%,100%,99.607843%);stop-opacity:1;"/>
<stop offset="0.979" style="stop-color:rgb(41.960785%,100%,99.215686%);stop-opacity:1;"/>
<stop offset="1" style="stop-color:rgb(39.607844%,100%,99.215686%);stop-opacity:1;"/>
</linearGradient>
<linearGradient id="linear5" gradientUnits="userSpaceOnUse" x1="0.126" y1="0.992" x2="0.692" y2="-0.06" gradientTransform="matrix(155.511719,0,0,144.878906,28.273438,21.808594)">
<stop offset="0" style="stop-color:rgb(100%,100%,100%);stop-opacity:0;"/>
<stop offset="0.515" style="stop-color:rgb(90.196079%,100%,100%);stop-opacity:1;"/>
<stop offset="1" style="stop-color:rgb(80.784315%,100%,100%);stop-opacity:0.502;"/>
</linearGradient>
<filter id="alpha" filterUnits="objectBoundingBox" x="0%" y="0%" width="100%" height="100%">
  <feColorMatrix type="matrix" in="SourceGraphic" values="0 0 0 0 1 0 0 0 0 1 0 0 0 0 1 0 0 0 1 0"/>
</filter>
<mask id="mask0">
  <g filter="url(#alpha)">
<rect x="0" y="0" width="250" height="250" style="fill:rgb(0%,0%,0%);fill-opacity:0.4;stroke:none;"/>
  </g>
</mask>
<linearGradient id="linear6" gradientUnits="userSpaceOnUse" x1="0" y1="0.5" x2="1" y2="0.5" gradientTransform="matrix(181.859375,0,0,149.230469,8.289063,8.226563)">
<stop offset="0" style="stop-color:rgb(100%,100%,100%);stop-opacity:1;"/>
<stop offset="0.867" style="stop-color:rgb(100%,100%,100%);stop-opacity:0.306;"/>
<stop offset="1" style="stop-color:rgb(100%,100%,100%);stop-opacity:0.2;"/>
</linearGradient>
<clipPath id="clip3">
  <rect x="0" y="0" width="250" height="250"/>
</clipPath>
<g id="surface5" clip-path="url(#clip3)">
<path style=" stroke:none;fill-rule:nonzero;fill:url(#linear6);" d="M 124.902344 8.226562 C 88.265625 8.433594 53.832031 25.75 31.820312 55.035156 C 9.808594 84.320312 2.746094 122.207031 12.730469 157.457031 C 12.730469 157.457031 12.679688 156.332031 12.613281 154.28125 C 12.242188 142.082031 13.816406 97.195312 36.726562 101.105469 C 59.636719 105.015625 93.171875 111.800781 132.851562 100.863281 C 172.53125 89.921875 204.160156 52.816406 183.777344 24.164062 C 183.78125 24.164062 159.914062 8.226562 124.902344 8.226562 Z M 124.902344 8.226562 "/>
</g>
</defs>
<g id="surface1">
<path style=" stroke:none;fill-rule:nonzero;fill:url(#radial0);" d="M 241.71875 124.980469 C 241.71875 189.4375 189.464844 241.691406 125.007812 241.691406 C 60.550781 241.691406 8.292969 189.4375 8.292969 124.980469 C 8.292969 60.519531 60.546875 8.265625 125.003906 8.265625 C 189.464844 8.265625 241.71875 60.519531 241.71875 124.980469 Z M 241.71875 124.980469 "/>
<g clip-path="url(#clip1)" clip-rule="nonzero">
<g clip-path="url(#clip2)" clip-rule="nonzero">
<path style=" stroke:none;fill-rule:nonzero;fill:url(#radial1);" d="M 201.585938 88.382812 C 217.664062 103.984375 229.90625 123.5 232.386719 146.84375 C 237.847656 198.253906 197.863281 244.636719 143.078125 250.457031 C 88.292969 256.28125 39.457031 219.320312 34 167.914062 C 28.539062 116.507812 59.519531 119.992188 114.296875 114.171875 C 144.191406 111.003906 191.847656 78.929688 201.585938 88.382812 Z M 201.585938 88.382812 "/>
</g>
</g>
<path style=" stroke:none;fill-rule:nonzero;fill:url(#linear0);" d="M 207.167969 98.421875 L 207.050781 96.917969 L 187.9375 96.917969 L 207.175781 80.472656 L 207.144531 79.679688 C 206.746094 68.414062 203.363281 57.457031 197.335938 47.929688 L 196.875 47.050781 L 93.652344 47.050781 C 83.902344 47.050781 64.960938 50.066406 51.054688 65.617188 C 44.992188 72.398438 32 92.753906 32.164062 115.585938 C 32.261719 128.433594 33.507812 138.421875 38.359375 149.601562 C 40.65625 154.96875 43.40625 160.128906 46.570312 165.03125 C 56.367188 182.601562 67.042969 194.835938 78.304688 201.394531 C 87.84375 206.945312 96.289062 207.699219 103.296875 207.699219 L 161.804688 207.699219 L 162.152344 207.503906 C 162.347656 207.40625 181.488281 197.398438 198.773438 186.898438 L 199.277344 186.59375 L 199.472656 186.054688 C 199.53125 185.886719 199.59375 185.726562 199.652344 185.570312 C 199.796875 185.238281 199.925781 184.898438 200.03125 184.550781 C 202.160156 178.453125 203.9375 165.34375 204.796875 158.097656 C 205.144531 155.453125 205.34375 153.714844 205.34375 153.703125 L 205.5625 151.886719 L 205.492188 151.886719 L 205.640625 150.421875 L 185.21875 150.421875 L 207.113281 133.84375 L 207.175781 133.117188 C 208.511719 116.988281 207.175781 98.609375 207.167969 98.421875 Z M 207.167969 98.421875 "/>
<path style=" stroke:none;fill-rule:nonzero;fill:rgb(100%,100%,100%);fill-opacity:1;" d="M 121.21875 170.15625 C 121.21875 170.15625 102.042969 172 45.519531 157.246094 C 68.582031 202.230469 90.179688 204.679688 106.25 204.679688 L 161.105469 204.679688 C 161.105469 204.679688 179.328125 194.800781 196.613281 184.304688 Z M 121.21875 170.15625 "/>
<path style=" stroke:none;fill-rule:nonzero;fill:url(#linear1);" d="M 106.257812 203.105469 C 99.332031 203.105469 89.605469 203.160156 79.957031 196.871094 C 63.179688 185.933594 57.640625 177.3125 48.050781 159.253906 C 91.144531 170.316406 111.8125 171.542969 118.777344 171.542969 C 120.046875 171.542969 120.816406 171.5 121.160156 171.472656 L 195.585938 183.539062 C 180.335938 192.652344 162.339844 202.023438 160.269531 203.109375 L 106.257812 203.109375 Z M 106.257812 203.105469 "/>
<path style=" stroke:none;fill-rule:nonzero;fill:rgb(100%,100%,100%);fill-opacity:1;" d="M 84.949219 152.582031 C 84.949219 152.582031 75.679688 141.839844 72.449219 133.679688 L 177.289062 152.582031 L 204.160156 132.234375 C 204.128906 115.542969 204.058594 99.574219 204.058594 99.574219 L 72.453125 99.574219 C 72.453125 99.574219 77.101562 86.242188 85.484375 80.941406 L 181.480469 98.875 L 204.136719 79.496094 C 203.222656 61.269531 194.496094 50.164062 194.496094 50.164062 L 93.179688 50.164062 C 84.335938 50.164062 66.265625 52.117188 52.652344 67.335938 C 39.042969 82.554688 26.914062 116.476562 39.964844 148.082031 C 53.21875 180.183594 70.425781 184.304688 80.148438 184.304688 L 196.621094 184.304688 C 196.78125 183.835938 197.011719 183.398438 197.167969 182.851562 C 199.96875 173.371094 202.371094 152.589844 202.371094 152.589844 L 84.949219 152.589844 Z M 84.949219 152.582031 "/>
<path style=" stroke:none;fill-rule:nonzero;fill:url(#linear2);" d="M 112.964844 60.882812 C 112.964844 60.882812 75.128906 68.257812 73.28125 69.183594 C 71.4375 70.105469 64.054688 103.328125 64.054688 103.328125 L 173.945312 103.328125 L 202.125 79.496094 Z M 112.964844 60.882812 "/>
<path style=" stroke:none;fill-rule:nonzero;fill:url(#linear3);" d="M 113.683594 113.621094 C 113.683594 113.621094 75.847656 121.003906 74.007812 121.929688 C 72.171875 122.855469 64.78125 156.070312 64.78125 156.070312 L 170.617188 156.070312 L 202.964844 131.644531 Z M 113.683594 113.621094 "/>
<path style=" stroke:none;fill-rule:nonzero;fill:url(#linear4);" d="M 204.164062 132.234375 L 72.554688 132.234375 C 75.785156 140.402344 85.054688 151.136719 85.054688 151.136719 L 202.480469 151.136719 C 202.480469 151.136719 200.171875 174.308594 197.171875 182.84375 L 83.695312 182.84375 C 69.230469 182.84375 53.679688 178 40.070312 146.628906 C 26.460938 115.253906 39.152344 81.101562 52.761719 65.878906 C 66.371094 50.660156 84.441406 48.707031 93.28125 48.707031 L 194.601562 48.707031 C 194.601562 48.707031 203.371094 60.8125 204.136719 79.496094 L 85.589844 79.496094 C 77.210938 84.800781 72.554688 98.128906 72.554688 98.128906 L 204.15625 98.128906 C 204.933594 109.484375 204.933594 120.878906 204.164062 132.234375 Z M 204.164062 132.234375 "/>
<path style=" stroke:none;fill-rule:nonzero;fill:url(#linear5);" d="M 183.785156 41.066406 C 183.785156 41.066406 138.003906 22.902344 96.6875 46.269531 C 60.476562 66.753906 19.40625 99.492188 49.910156 166.6875 C 22.351562 127.367188 22.054688 95.414062 43.699219 61.9375 C 64.15625 30.292969 124.375 1.441406 183.785156 41.066406 Z M 183.785156 41.066406 "/>
<use xlink:href="#surface5" mask="url(#mask0)"/>
<path style=" stroke:none;fill-rule:nonzero;fill:rgb(100%,100%,100%);fill-opacity:1;" d="M 105.851562 49.335938 C 108.695312 56.574219 98.988281 65.234375 86.832031 67.886719 C 74.675781 70.535156 62.425781 66.5625 60.277344 59.097656 C 56.867188 47.242188 68.691406 43.023438 80.847656 40.382812 C 93.003906 37.738281 100.136719 34.78125 105.851562 49.335938 Z M 105.851562 49.335938 "/>
</g>
</svg>
